svgs/light/globe.svg

<svg xmlns="http://www.w3.org/2000/svg" viewBox="0 0 512 512"><!--! Font Awesome Pro 6.5.1 by @fontawesome - https://fontawesome.com License - https://fontawesome.com/license (Commercial License) Copyright 2023 Fonticons, Inc. --><path d="M256 480c16.7 0 40.4-14.4 61.9-57.3c9.9-19.8 18.2-43.7 24.1-70.7H170c5.9 27 14.2 50.9 24.1 70.7C215.6 465.6 239.3 480 256 480zM164.3 320H347.7c2.8-20.2 4.3-41.7 4.3-64s-1.5-43.8-4.3-64H164.3c-2.8 20.2-4.3 41.7-4.3 64s1.5 43.8 4.3 64zM170 160H342c-5.9-27-14.2-50.9-24.1-70.7C296.4 46.4 272.7 32 256 32s-40.4 14.4-61.9 57.3C184.2 109.1 175.9 133 170 160zm210 32c2.6 20.5 4 41.9 4 64s-1.4 43.5-4 64h90.8c6-20.3 9.3-41.8 9.3-64s-3.2-43.7-9.3-64H380zm78.5-32c-25.9-54.5-73.1-96.9-130.9-116.3c21 28.3 37.6 68.8 47.2 116.3h83.8zm-321.1 0c9.6-47.6 26.2-88 47.2-116.3C126.7 63.1 79.4 105.5 53.6 160h83.7zm-96 32c-6 20.3-9.3 41.8-9.3 64s3.2 43.7 9.3 64H132c-2.6-20.5-4-41.9-4-64s1.4-43.5 4-64H41.3zM327.5 468.3c57.8-19.5 105-61.8 130.9-116.3H374.7c-9.6 47.6-26.2 88-47.2 116.3zm-143 0c-21-28.3-37.5-68.8-47.2-116.3H53.6c25.9 54.5 73.1 96.9 130.9 116.3zM256 512A256 256 0 1 1 256 0a256 256 0 1 1 0 512z"/></svg>

<svg xmlns="http://www.w3.org/2000/svg" viewBox="0 0 512 512"><!--! Font Awesome Pro 6.1.1 by @fontawesome - https://fontawesome.com License - https://fontawesome.com/license (Commercial License) Copyright 2022 Fonticons, Inc. --><path d="M256 0C397.4 0 512 114.6 512 256C512 397.4 397.4 512 256 512C114.6 512 0 397.4 0 256C0 114.6 114.6 0 256 0zM256 480C272.7 480 296.4 465.6 317.9 422.7C327.8 402.9 336.1 378.1 341.1 352H170C175.9 378.1 184.2 402.9 194.1 422.7C215.6 465.6 239.3 480 256 480V480zM164.3 320H347.7C350.5 299.8 352 278.3 352 256C352 233.7 350.5 212.2 347.7 192H164.3C161.5 212.2 160 233.7 160 256C160 278.3 161.5 299.8 164.3 320V320zM341.1 160C336.1 133 327.8 109.1 317.9 89.29C296.4 46.37 272.7 32 256 32C239.3 32 215.6 46.37 194.1 89.29C184.2 109.1 175.9 133 170 160H341.1zM379.1 192C382.6 212.5 384 233.9 384 256C384 278.1 382.6 299.5 379.1 320H470.7C476.8 299.7 480 278.2 480 256C480 233.8 476.8 212.3 470.7 192H379.1zM327.5 43.66C348.5 71.99 365.1 112.4 374.7 160H458.4C432.6 105.5 385.3 63.12 327.5 43.66V43.66zM184.5 43.66C126.7 63.12 79.44 105.5 53.56 160H137.3C146.9 112.4 163.5 71.99 184.5 43.66V43.66zM32 256C32 278.2 35.24 299.7 41.28 320H132C129.4 299.5 128 278.1 128 256C128 233.9 129.4 212.5 132 192H41.28C35.24 212.3 32 233.8 32 256V256zM458.4 352H374.7C365.1 399.6 348.5 440 327.5 468.3C385.3 448.9 432.6 406.5 458.4 352zM137.3 352H53.56C79.44 406.5 126.7 448.9 184.5 468.3C163.5 440 146.9 399.6 137.3 352V352z"/></svg>
